!!!COM: Haydn, Franz Joseph 
!!!OPR: Symphony in F Major 
!!!OTL: Andante più tosto Allegretto 
!!!OMV: 2 
!!!SCT: H I:40 
!!!SCA: Thematisch-bibliographisches Werkevererzeichnis (A. van Hoboken) 
!!!YOR: Breitkopf & Härtel Edition 
!!!EED: Frances Bennion 
!!!ENC: Frances Bennion 
!!!CDT: 1732/3/31/-1809/5/31/
!!!OCY: Österreich 
!!!YEC: Copyright (c) 1994, 2000 Center for Computer Assisted Research in the Humanities 
!!!YEM: Rights to all derivative editions reserved. 
!!!YEM: Refer to licensing agreement for further details. 
!!!YEN: United States of America 
**kern	**kern	**kern	**kern
*k[b-e-]	*k[b-e-]	*k[b-e-]	*k[b-e-]
*B-:	*B-:	*B-:	*B-:
*clefF	*clefG	*clefC3	*clefF4
*M2/4	*M2/4	*M2/4	*M2/4
*tb16	*tb16	*tb16	*tb16
=0-	=0-	=0-	=0-
4.r	4.r	4.r	4.r
8r	8r	8f	8F
=1	=1	=1	=1
8r	8r	8b-	8B-
8ff	8ff	8dd	8d
8ff	8ff	8cc	8c
8ff	8ff	8b-	8B-
=2	=2	=2	=2
4.ff	4.ff	8a	8A
.	.	8g	8G
.	.	8f	8F
16ee-	16ee-	16g	16G
16cc	16cc	16a	16A
=3	=3	=3	=3
8dd	8dd	8b-	8B-
8ff	8ff	8dd	8d
8ff	8ff	8cc	8c
8ff	8ff	8b-	8B-
=4	=4	=4	=4
4.ff	4.ff	8a	8A
.	.	8g	8G
.	.	8f	8F
16ee-	16ee-	16g	16G
16cc	16cc	16a	16A
=5	=5	=5	=5
8dd	8dd	8b-	8B-
4r	4r	8cc	8c
.	.	8dd	8d
16ff	16ff	8b-	8B-
16dd	16dd	.	.
=6	=6	=6	=6
8gg	8gg	8e-	8E-
4r	4r	8cc	8c
.	.	8a	8A
16ee-	16ee-	16g	16G
16cc	16cc	16a	16A
=7	=7	=7	=7
8b-	8b-	8b-	8B-
4.r	4.r	8f	8F
.	.	8d	8D
.	.	8f	8F
=8	=8	=8	=8
8r	8r	8B-	8B-
8f	8f	8d	8d
8f	8f	8c	8c
8f	8f	8B-	8B-
=9	=9	=9	=9
4.f	4.f	8A	8A
.	.	8G	8G
.	.	8F	8F
16e-	16e-	16G	16G
16c	16c	16A	16A
=10	=10	=10	=10
8d	8d	8B-	8B-
8f	8f	8d	8d
8f	8f	8c	8c
8f	8f	8B-	8B-
=11	=11	=11	=11
4.f	4.f	8A	8A
.	.	8G	8G
.	.	8F	8F
16e-	16e-	16G	16G
16c	16c	16A	16A
=12	=12	=12	=12
8d	8d	8B-	8B-
4r	4r	8c	8c
.	.	8d	8d
16f	16f	8B-	8B-
16d	16d	.	.
=13	=13	=13	=13
8g	8g	8E-	8E-
4r	4r	8c	8c
.	.	8A	8A
16e-	16e-	16G	16G
16c	16c	16A	16A
=14	=14	=14	=14
8B-	8B-	8B-	8B-
4r	4r	8g	8G
.	.	8f	8F
8f	8f	8e-	8E-
=15	=15	=15	=15
8b-	8b-	8d	8D
8b-	8b-	8f	8F
8b-	8b-	8B-	8BB-
8b-	8b-	8dd	8d
=16	=16	=16	=16
8a	8a	8cc	8c
8cc	8cc	16a	16A
.	.	16g	16G
8r	8r	8f	8F
8dd	8dd	8B-	8BB-
=17	=17	=17	=17
8cc	8cc	8A	8AA
16a	16a	8c	8C
16g	16g	.	.
8f	8f	8f	8F
8b-	8b-	8dd	8d
=18	=18	=18	=18
8a	8a	8cc	8c
8cc	8cc	16a	16A
.	.	16g	16G
8r	8r	8f	8F
8dd	8dd	8B-	8BB-
=19	=19	=19	=19
8cc	8cc	8A	8AA
16a	16a	8c	8C
16g	16g	.	.
8f	8f	8f	8F
8cc	8cc	8A	8AA
=20	=20	=20	=20
8dd	8dd	8B-	8BB-
8dd	8dd	8d	8D
8dd	8dd	8g	8G
16b-	16b-	8b-	8B-
16g	16g	.	.
=21	=21	=21	=21
4e	4e	8cc	8c
.	.	8g	8G
8r	8r	8c	8C
8b-	8b-	16d	16D
.	.	16e	16E
=22	=22	=22	=22
8a	8a	8f	8F
8cc	8cc	8a	8A
8r	8r	8c	8C
8bb-	8bb-	16d	16D
.	.	16e	16E
=23	=23	=23	=23
8aa	8aa	8f	8F
8ccc	8ccc	8a	8A
8r	8r	8c	8C
8b-	8b-	16d	16D
.	.	16e	16E
=24	=24	=24	=24
8a	8a	8f	8F
8cc	8cc	8a	8A
8r	8r	8c	8C
8B-	8B-	16d	16D
.	.	16e	16E
=25	=25	=25	=25
8A	8A	8f	8F
8c	8c	8a	8A
8r	8r	8A	8AA
16cc	16cc	8f	8F
16f	16f	.	.
=26	=26	=26	=26
8dd	8dd	8B-	8BB-
4r	4r	8g	8G
.	.	8c	8C
16ee	16ee	8a	8A
16a	16a	.	.
=27	=27	=27	=27
8ff	8ff	8d	8D
4r	4r	8b-	8B-
.	.	8e	8E
16gg	16gg	8cc	8c
16cc	16cc	.	.
=28	=28	=28	=28
8aa	8aa	8f	8F
8aa	8aa	8cc	8c
8bb-	8bb-	8g	8G
16gg	16gg	8cc	8c
16ee	16ee	.	.
=29	=29	=29	=29
8ff	8ff	8a	8A
4r	4r	8cc	8c
.	.	8e	8E
16gg	16gg	8cc	8c
16cc	16cc	.	.
=30	=30	=30	=30
8aa	8aa	8f	8F
8aa	8aa	8cc	8c
8bb-	8bb-	8g	8G
16gg	16gg	8cc	8c
16ee	16ee	.	.
=31	=31	=31	=31
8ff	8ff	8a	8A
4r	4r	8cc	8c
.	.	8e	8E
16gg	16gg	8cc	8c
16cc	16cc	.	.
=32	=32	=32	=32
8aa	8aa	8f	8F
16aa	16aa	8cc	8c
16cc	16cc	.	.
8bb-	8bb-	8g	8G
16bb-	16bb-	8cc	8c
16cc	16cc	.	.
=33	=33	=33	=33
8ccc	8ccc	8a	8A
8ccc	8ccc	8f	8F
8ccc	8ccc	8e	8E
16bb-	16bb-	8c	8C
16gg	16gg	.	.
=34	=34	=34	=34
8ff	8ff	8d	8D
8ff	8ff	8B	8BB
8ff	8ff	8c	8C
16gg	16gg	8C	8CC
16ee	16ee	.	.
=35	=35	=35	=35
8ff	8ff	8F	8FF
4r	4r	8c	8C
.	.	8f	8F
16cc	16cc	8a	8A
16a	16a	.	.
=36	=36	=36	=36
8dd	8dd	8B-	8BB-
8dd	8dd	8d	8D
8dd	8dd	8g	8G
16b-	16b-	8b-	8B-
16g	16g	.	.
=37	=37	=37	=37
8ee	8ee	8c	8C
8ee	8ee	8e	8E
8ee	8ee	8a	8A
16cc	16cc	8cc	8c
16a	16a	.	.
=38	=38	=38	=38
8ff	8ff	8d	8D
8ff	8ff	8f	8F
8ff	8ff	8b-	8B-
16dd	16dd	8dd	8d
16b-	16b-	.	.
=39	=39	=39	=39
8gg	8gg	8e	8E
8gg	8gg	8g	8G
8gg	8gg	8cc	8c
16ee	16ee	8e	8e
16cc	16cc	.	.
=40	=40	=40	=40
8aa	8aa	8f	8f
16bb-	16bb-	8e	8e
16gg	16gg	.	.
8aa	8aa	8f	8f
16bb-	16bb-	8e	8e
16gg	16gg	.	.
=41	=41	=41	=41
8aa	8aa	8f	8f
16gg	16gg	8cc	8c
16ee	16ee	.	.
8ff	8ff	8dd	8d
16cc	16cc	8a	8A
16a	16a	.	.
=42	=42	=42	=42
8dd	8dd	8b-	8B-
16b-	16b-	8g	8G
16g	16g	.	.
8f	8f	8cc	8c
16g	16g	8c	8C
16e	16e	.	.
=43	=43	=43	=43
8f	8f	8f	8F
4r	4r	8c	8C
.	.	8A	8AA
16g	16g	8c	8C
16e	16e	.	.
=44	=44	=44	=44
8f	8f	8f	8F
4r	4r	8c	8C
.	.	8A	8AA
16g	16g	8c	8C
16e	16e	.	.
=45	=45	=45	=45
8f	8f	4f	4F
4.r	4.r	.	.
.	.	8r	8r
.	.	8c	8C
=46	=46	=46	=46
8r	8r	8f	8F
8cc	8cc	8a	8A
8cc	8cc	8g	8G
8cc	8cc	8f	8F
=47	=47	=47	=47
4.cc	4.cc	8e	8E
.	.	8d	8D
.	.	8c	8C
16b-	16b-	16d	16D
16g	16g	16e	16E
=48	=48	=48	=48
8a	8a	8f	8F
8cc	8cc	8a	8A
8cc	8cc	8g	8G
8cc	8cc	8f	8F
=49	=49	=49	=49
4.cc	4.cc	8e	8E
.	.	8d	8D
.	.	8c	8C
16b-	16b-	16d	16D
16g	16g	16e	16E
=50	=50	=50	=50
8a	8a	8f	8F
4r	4r	8g	8G
.	.	8a	8A
16cc	16cc	8f	8F
16a	16a	.	.
=51	=51	=51	=51
8dd	8dd	8B-	8BB-
4r	4r	8g	8G
.	.	8e	8E
16b-	16b-	16d	16D
16g	16g	16e	16E
=52	=52	=52	=52
4f	8f	8f	8F
.	4.r	8F	8FF
4r	.	8r	8r
.	.	8d	8D
=53	=53	=53	=53
8r	8r	8g	8G
8dd	8dd	8b-	8B-
8dd	8dd	8a	8A
8dd	8dd	8g	8G
=54	=54	=54	=54
4.dd	4.dd	8f#	8F#
.	.	8e	8E
.	.	8d	8D
16cc	16cc	16e	16E
16a	16a	16f#	16F#
=55	=55	=55	=55
8b-	8b-	8g	8G
8ddd	8ddd	8b-	8B-
8ddd	8ddd	8a	8A
8ddd	8ddd	8g	8G
=56	=56	=56	=56
4.ddd	4.ddd	8f#	8F#
.	.	8e	8E
.	.	8d	8D
16ccc	16ccc	16e	16E
16aa	16aa	16f#	16F#
=57	=57	=57	=57
8bb-	8bb-	8g	8G
8gg	8gg	8ee-	8e-
8gg	8gg	8dd	8d
8gg	8gg	8cc	8c
=58	=58	=58	=58
4.gg	4.gg	8b	8B
.	.	8a	8A
.	.	8g	8G
16ff	16ff	16a	16A
16dd	16dd	16b	16B
=59	=59	=59	=59
8ee-	8ee-	8cc	8c
16dd	16dd	8dd	8d
16b	16b	.	.
8cc	8cc	8ee-	8e-
16ee-	16ee-	8cc	8c
16g	16g	.	.
=60	=60	=60	=60
4f#	4f#	8dd	8d
.	.	8a	8A
8r	8r	8d	8D
8cc	8cc	16e	16E
.	.	16f#	16F#
=61	=61	=61	=61
8b-	8b-	8g	8G
8dd	8dd	8b-	8B-
8r	8r	8d	8D
8ccc	8ccc	16e	16E
.	.	16f#	16F#
=62	=62	=62	=62
8bb-	8bb-	8g	8G
8ddd	8ddd	8b-	8B-
8r	8r	8d	8D
8cc	8cc	16e	16E
.	.	16f#	16F#
=63	=63	=63	=63
8b-	8b-	8g	8G
8dd	8dd	8b-	8B-
8r	8r	8d	8D
8c	8c	16e	16E
.	.	16f#	16F#
=64	=64	=64	=64
8B-	8B-	8g	8G
8d	8d	8b-	8B-
8r	8r	8B-	8BB-
16dd	16dd	8g	8G
16g	16g	.	.
=65	=65	=65	=65
8ee-	8ee-	8c	8C
4r	4r	8cc	8c
.	.	8d	8D
16ccc	16ccc	8a	8A
16ff#	16ff#	.	.
=66	=66	=66	=66
8gg	8gg	8e-	8E-
4r	4r	8g	8G
.	.	8f#	8F#
16aa	16aa	8dd	8d
16dd	16dd	.	.
=67	=67	=67	=67
8bb-	8bb-	8g	8G
8bb-	8bb-	8dd	8d
8ccc	8ccc	8a	8A
16aa	16aa	8dd	8d
16ff#	16ff#	.	.
=68	=68	=68	=68
8gg	8gg	8b-	8B-
4r	4r	8dd	8d
.	.	8f#	8F#
16aa	16aa	8dd	8d
16dd	16dd	.	.
=69	=69	=69	=69
8bb-	8bb-	8g	8G
8bb-	8bb-	8dd	8d
8ccc	8ccc	8a	8A
16aa	16aa	8dd	8d
16ff#	16ff#	.	.
=70	=70	=70	=70
8gg	8gg	8b-	8B-
4r	4r	8dd	8d
.	.	8f#	8F#
16aa	16aa	8dd	8d
16dd	16dd	.	.
=71	=71	=71	=71
8bb-	8bb-	8g	8G
16bb-	16bb-	8dd	8d
16dd	16dd	.	.
8ccc	8ccc	8a	8A
16ccc	16ccc	8dd	8d
16dd	16dd	.	.
=72	=72	=72	=72
8ddd	8ddd	8b-	8B-
8ddd	8ddd	8g	8G
8ddd	8ddd	8f#	8F#
16ccc	16ccc	8d	8D
16aa	16aa	.	.
=73	=73	=73	=73
8gg	8gg	8e-	8E-
8gg	8gg	8c	8C
8gg	8gg	8d	8D
16aa	16aa	8D	8DD
16ff#	16ff#	.	.
=74	=74	=74	=74
8gg	8gg	8G	8GG
4r	4r	8d	8D
.	.	8g	8G
16dd	16dd	8b-	8B-
16g	16g	.	.
=75	=75	=75	=75
8ee-	8ee-	8cc	8c
8ee-	8ee-	8c	8C
8ee-	8ee-	8f	8F
16cc	16cc	8a	8A
16a	16a	.	.
=76	=76	=76	=76
8dd	8dd	8b-	8B-
8dd	8dd	8f	8F
8dd	8dd	8B-	8BB-
16ff	16ff	8d	8D
16dd	16dd	.	.
=77	=77	=77	=77
8gg	8gg	8e-	8E-
8gg	8gg	8g	8G
8gg	8gg	8cc	8c
16ee-	16ee-	8e-	8e-
16cc	16cc	.	.
=78	=78	=78	=78
2a	2a	8f	8f
.	.	8c	8c
.	.	8F	8F
.	.	16G	16G
.	.	16A	16A
=79	=79	=79	=79
8r	8r	8B-	8B-
8f	8f	8d	8d
8f	8f	8c	8c
8f	8f	8B-	8B-
=80	=80	=80	=80
4.f	4.f	8A	8A
.	.	8G	8G
.	.	8F	8F
16e-	16e-	16G	16G
16c	16c	16A	16A
=81	=81	=81	=81
8d	8d	8B-	8B-
8ff	8ff	8dd	8d
8ff	8ff	8cc	8c
8ff	8ff	8b-	8B-
=82	=82	=82	=82
4.ff	4.ff	8a	8A
.	.	8g	8G
.	.	8f	8F
16ee-	16ee-	16g	16G
16cc	16cc	16a	16A
=83	=83	=83	=83
8dd	8dd	8b-	8B-
8bb-	8bb-	8g	8G
8bb-	8bb-	8f	8F
8bb-	8bb-	8e-	8E-
=84	=84	=84	=84
4.bb-	4.bb-	8d	8D
.	.	8c	8C
.	.	8B-	8BB-
16aa-	16aa-	16c	16C
16ff	16ff	16d	16D
=85	=85	=85	=85
8gg	8gg	8e-	8E-
16ff	16ff	8f	8F
16dd	16dd	.	.
8ee-	8ee-	8g	8G
16dd	16dd	8f	8F
16b	16b	.	.
=86	=86	=86	=86
8cc	8cc	8e-	8E-
16ee-	16ee-	8c	8C
16cc	16cc	.	.
8gg	8gg	8e-	8E-
8b-	8b-	8e	8E
=87	=87	=87	=87
4a	4a	8f	8F
.	.	8F	8FF
8r	8r	8f	8F
8ee-	8ee-	16g	16G
.	.	16a	16A
=88	=88	=88	=88
8dd	8dd	8b-	8B-
8ff	8ff	8dd	8d
8r	8r	8f	8F
8e-	8e-	16g	16G
.	.	16a	16A
=89	=89	=89	=89
8d	8d	8b-	8B-
8f	8f	8dd	8d
8r	8r	8f	8F
16ccc	16ccc	16g	16G
16ee-	16ee-	16a	16A
=90	=90	=90	=90
8dd	8dd	8b-	8B-
8ff	8ff	8dd	8d
8r	8r	8f	8F
8e-	8e-	16g	16G
.	.	16a	16A
=91	=91	=91	=91
8d	8d	8b-	8B-
8f	8f	8dd	8d
8r	8r	8d	8BB-
16ff	16ff	8b-	8B-
16b-	16b-	.	.
=92	=92	=92	=92
8gg	8gg	8e-	8E-
4r	4r	8cc	8c
.	.	8f	8F
16aa	16aa	8dd	8d
16dd	16dd	.	.
=93	=93	=93	=93
8bb-	8bb-	8g	8G
4r	4r	8ee-	8e-
.	.	8a	8A
16ccc	16ccc	8f	8f
16ee-	16ee-	.	.
=94	=94	=94	=94
8dd	8dd	8B-	8BB-
8dd	8dd	8f	8F
8ee-	8ee-	8c	8C
16cc	16cc	8f	8F
16a	16a	.	.
=95	=95	=95	=95
8b-	8b-	8d	8D
4r	4r	8f	8F
.	.	8A	8AA
16cc	16cc	8f	8F
16f	16f	.	.
=96	=96	=96	=96
8dd	8dd	8B-	8BB-
8dd	8dd	8f	8F
8ee-	8ee-	8c	8C
16cc	16cc	8f	8F
16a	16a	.	.
=97	=97	=97	=97
8b-	8b-	8d	8D
4r	4r	8f	8F
.	.	8A	8AA
16cc	16cc	8f	8F
16f	16f	.	.
=98	=98	=98	=98
8dd	8dd	8B-	8BB-
16dd	16dd	8f	8F
16f	16f	.	.
8ee-	8ee-	8c	8C
16ee-	16ee-	8f	8F
16f	16f	.	.
=99	=99	=99	=99
8ff	8ff	8d	8D
8ff	8ff	8b-	8B-
8ff	8ff	8a	8A
16ee-	16ee-	8f	8F
16cc	16cc	.	.
=100	=100	=100	=100
8b-	8b-	8g	8G
8b-	8b-	8e	8E
8b-	8b-	8f	8F
16cc	16cc	8F	8FF
16a	16a	.	.
=101	=101	=101	=101
8b-	8b-	8B-	8BB-
4r	4r	8f	8F
.	.	8b-	8B-
16ff	16ff	8dd	8d
16b-	16b-	.	.
=102	=102	=102	=102
8gg	8gg	8ee-	8e-
8gg	8gg	8e-	8E-
8gg	8gg	8a	8A
16ee-	16ee-	8cc	8c
16cc	16cc	.	.
=103	=103	=103	=103
8ff	8ff	8dd	8d
8ff	8ff	8d	8D
8ff	8ff	8g	8G
16dd	16dd	8b-	8B-
16b-	16b-	.	.
=104	=104	=104	=104
8ee-	8ee-	8cc	8c
8ee-	8ee-	8c	8C
8ee-	8ee-	8f	8F
16cc	16cc	8a	8A
16a	16a	.	.
=105	=105	=105	=105
8dd	8dd	8b-	8B-
16ee-	16ee-	8a	8A
16cc	16cc	.	.
8dd	8dd	8b-	8B-
16ee-	16ee-	8a	8A
16cc	16cc	.	.
=106	=106	=106	=106
8dd	8dd	8b-	8B-
16ccc	16ccc	8f	8F
16aa	16aa	.	.
8bb-	8bb-	8g	8G
16ff	16ff	8d	8D
16dd	16dd	.	.
=107	=107	=107	=107
8gg	8gg	8e-	8E-
16ee-	16ee-	8c	8C
16cc	16cc	.	.
8b-	8b-	8f	8F
16cc	16cc	8F	8FF
16a	16a	.	.
=108	=108	=108	=108
8b-	8b-	8b-	8B-
4r	4r	8f	8F
.	.	8d	8D
16cc	16cc	8f	8F
16a	16a	.	.
=109	=109	=109	=109
8b-	8b-	8b-	8B-
4r	4r	8f	8F
.	.	8d	8D
16cc	16cc	8f	8F
16a	16a	.	.
=110	=110	=110	=110
8b-	8b-	8b-	8B-
4.r	4.r	4.r	4.r
==	==	==	==
*-	*-	*-	*-
!!!RWG1: This file contains only pitch and duration data.
!!!RWG2: Transposing instruments are not transposed.
!!!RWG3: Spines may have incompatible meters.
!!!RWG4: Durations of rests and tied notes may be interpreted.
!!!RWG: Key is interpreted using the Humdrum key tool.
!!!AFT: stage1 
!!!END: 2000/12/13
!!format changes:
!!content changes:
!!public access: complete
!!!KEY: 311409938
!!!EMD: Converted from MuseData to Humdrum Dec 16, 2000, by Andreas Kornstaedt using muse2kern.
